X: 95
T:Lady Hooper's Reel. WM.095
M:C
L:1/8
Q:200
S:Wm.Mittell's MS,New Romney,Kent,1799
R:Reel
O:England
A:Kent
N:
D:
H:
Z:vmp.Chris Partington
W:
K:FMaj
ABcd dcBA|f2(3agf gGG2|ABcf dcBA|BGcA F/F/FF2:|!
|:fcfg a2gf|ecgd acgB|fcfga2gf|cfeg f/f/ff2|!
fcfga2gf|gfga baga|fdcBA2fd|cBAG F/F/FF2:|]
